X:1
T: Mixing the Punch
C:
R:Jig
Q:180
K:D
M:6/8
L:1/16
AG|F2E2D2 d2f2e2|d2A2F2 G2F2E2|G2B2G2 e2d2B2|A2B2A2 G2F2E2|F2A2D2 G2B2E2|A2c2e2 d2A2G2|F2D2G2 E2C2E2|D2E2D2 D4AG|
F2E2D2 d2f2e2|d2A2F2 G2F2E2|G2B2G2 e2d2B2|A2B2A2 G2F2E2|F2A2D2 G2B2E2|A2c2e2 d2A2G2|F2D2G2 E2C2E2|D2E2D2 D4(3ABc|
d4d2 d2e2f2|A2B2A2 F2d2c2|B2c2d2 e2f2g2|d4f2 e2c2A2|F2E2D2 d2e2f2|e2f2g2 e2c2A2|F2D2G2 E2C2E2|D2E2D2 D4(3ABc|
d4d2 d2e2f2|A2B2A2 F2d2c2|B2c2d2 e2f2g2|d4f2 e2c2A2|F2E2D2 d2e2f2|e2f2g2 e2c2A2|F2D2G2 E2C2E2|D2E2D2 D4||
